themes/vice/icons/system/system-suspend.svg

<svg xmlns="http://www.w3.org/2000/svg" width="16" height="16">
    <path style="fill:#dfdfdf" d="M8 2a6 6 0 0 0-6 6 6 6 0 0 0 6 6 6 6 0 0 0 6-6 6 6 0 0 0-6-6zm0 2a4 4 0 0 1 4 4 4 4 0 0 1-4 4 4 4 0 0 1-4-4 4 4 0 0 1 4-4z"/>
    <path style="fill:#dfdfdf" d="M6 7h4c.554 0 1 .446 1 1s-.446 1-1 1H6c-.554 0-1-.446-1-1s.446-1 1-1z"/>
</svg>

<svg xmlns="http://www.w3.org/2000/svg" width="16" height="16" version="1.1">
 <path style="fill:#dfdfdf" d="M 8 2 A 6 6 0 0 0 2 8 A 6 6 0 0 0 8 14 A 6 6 0 0 0 14 8 A 6 6 0 0 0 8 2 z M 8 4 A 4 4 0 0 1 12 8 A 4 4 0 0 1 8 12 A 4 4 0 0 1 4 8 A 4 4 0 0 1 8 4 z"/>
 <path style="fill:#dfdfdf" d="M 6,7 H 10 C 10.554,7 11,7.446 11,8 11,8.554 10.554,9 10,9 H 6 C 5.446,9 5,8.554 5,8 5,7.446 5.446,7 6,7 Z"/>
</svg>
